X:1
T:Mazurka de Freigne 
F:http://simonwascher.info/
Z:abc transcription Simon Wascher
M:3/4
L:1/8
K:G
DGA |\
B2AB AG | A2G2F2 | A2Bc BA | B2G2GA |
B2AB AG | A2G2F2 | A2Bc BA | G3 :|
|: DGA |\
B2dd Bd | cB AG FG | A2Bc BA | B2G2GA |
B2dd Bd | cB AG FG | A2Bc BA | G3 :|
|: A (3BAG |\
F3G (3AGF | E2DE FG | A2Bc BA | B2G A (3BAG |
F3G (3AGF | E2DE FG | A2Bc BA | G3 :|
%%wordsfont Times-Italic 11pt
W:aus Simon Waschers TradArchiv
